assets/icons/logout.svg

<svg width="32" height="32" viewBox="0 0 32 32" fill="none" xmlns="http://www.w3.org/2000/svg">
<path fill-rule="evenodd" clip-rule="evenodd" d="M4 9.34474C4 6.39332 6.39291 4 9.3436 4H14.9051C17.8567 4 20.2498 6.39311 20.2498 9.34474V10.4091C20.2498 11.0392 19.7391 11.5499 19.109 11.5499C18.479 11.5499 17.9682 11.0392 17.9682 10.4091V9.34474C17.9682 7.65323 16.5966 6.28164 14.9051 6.28164H9.3436C7.65343 6.28164 6.28164 7.65303 6.28164 9.34474V22.0421C6.28164 23.7338 7.65343 25.1052 9.3436 25.1052H14.9165C16.6016 25.1052 17.9682 23.7389 17.9682 22.0546V20.9788C17.9682 20.3488 18.479 19.838 19.109 19.838C19.7391 19.838 20.2498 20.3488 20.2498 20.9788V22.0546C20.2498 24.9998 17.8609 27.3868 14.9165 27.3868H9.3436C6.39291 27.3868 4 24.9935 4 22.0421V9.34474Z" fill="white"/>
<path fill-rule="evenodd" clip-rule="evenodd" d="M11.9814 15.6931C11.9814 15.063 12.4922 14.5522 13.1223 14.5522H26.8589C27.4889 14.5522 27.9997 15.063 27.9997 15.6931C27.9997 16.3231 27.4889 16.8339 26.8589 16.8339H13.1223C12.4922 16.8339 11.9814 16.3231 11.9814 15.6931Z" fill="white"/>
<path fill-rule="evenodd" clip-rule="evenodd" d="M22.7103 11.563C23.1548 11.1165 23.8771 11.1149 24.3236 11.5594L27.664 14.8849C27.879 15.099 27.9999 15.3899 27.9999 15.6933C27.9999 15.9967 27.8791 16.2876 27.6641 16.5017L24.3238 19.8283C23.8773 20.2729 23.155 20.2714 22.7104 19.825C22.2658 19.3786 22.2673 18.6563 22.7137 18.2117L25.2422 15.6935L22.7139 13.1763C22.2674 12.7318 22.2657 12.0095 22.7103 11.563Z" fill="white"/>
</svg>

<svg xmlns="http://www.w3.org/2000/svg" width="32" height="32" fill="none" data-c="1"><path fill="#fff" fill-rule="evenodd" d="M4 9.345A5.345 5.345 0 0 1 9.344 4h5.561a5.345 5.345 0 0 1 5.345 5.345v1.064a1.14 1.14 0 1 1-2.282 0V9.345a3.063 3.063 0 0 0-3.063-3.063H9.344a3.063 3.063 0 0 0-3.062 3.063v12.697a3.063 3.063 0 0 0 3.062 3.063h5.573a3.05 3.05 0 0 0 3.051-3.05v-1.076a1.14 1.14 0 0 1 2.282 0v1.076a5.333 5.333 0 0 1-5.334 5.332H9.345A5.345 5.345 0 0 1 4 22.042z" clip-rule="evenodd"/><path fill="#fff" fill-rule="evenodd" d="M11.981 15.693c0-.63.511-1.14 1.141-1.14H26.86a1.14 1.14 0 0 1 0 2.28H13.122c-.63 0-1.14-.51-1.14-1.14" clip-rule="evenodd"/><path fill="#fff" fill-rule="evenodd" d="M22.71 11.563a1.14 1.14 0 0 1 1.614-.004l3.34 3.326a1.14 1.14 0 0 1 0 1.617l-3.34 3.326a1.14 1.14 0 0 1-1.61-1.616l2.528-2.518-2.528-2.518a1.14 1.14 0 0 1-.004-1.613" clip-rule="evenodd"/></svg>
